Yaru++/actions/symbolic/process-stop-symbolic.svg

<svg height="16" width="16" xmlns="http://www.w3.org/2000/svg">
  <path d="m4.688 0-4.688 4.686v6.626l4.686 4.688h6.626l4.688-4.686v-6.627l-4.686-4.687h-.207zm.414 1h5.798l4.1 4.102v5.798l-4.102 4.1h-5.798l-4.1-4.102v-5.798zm.414 1-3.516 3.516v4.968l3.516 3.516h4.968l3.516-3.516v-4.968l-3.516-3.516z" fill="#808080"/>
</svg>

<svg height="16" width="16" xmlns="http://www.w3.org/2000/svg">
    <path d="M4.688 0L0 4.686v6.626L4.686 16h6.626L16 11.314V4.687L11.314 0h-.207zm.414 1H10.9L15 5.102V10.9L10.898 15H5.1L1 10.898V5.1zm.414 1L2 5.516v4.968L5.516 14h4.968L14 10.484V5.516L10.484 2z" fill="gray" font-family="sans-serif" font-weight="400" overflow="visible" style="line-height:normal;font-variant-ligatures:normal;font-variant-position:normal;font-variant-caps:normal;font-variant-numeric:normal;font-variant-alternates:normal;font-feature-settings:normal;text-indent:0;text-align:start;text-decoration-line:none;text-decoration-style:solid;text-decoration-color:#000;text-transform:none;text-orientation:mixed;shape-padding:0;isolation:auto;mix-blend-mode:normal" white-space="normal" color="#000"/>
</svg>
